build/assets/images/content/service_equip.svg

<svg width="40" height="40" viewBox="0 0 40 40" fill="none" xmlns="http://www.w3.org/2000/svg">
<g filter="url(#filter0_b_27_5242)">
<rect width="40" height="40" rx="12" fill="url(#paint0_radial_27_5242)" fill-opacity="0.3"/>
<rect x="1" y="1" width="38" height="38" rx="11" stroke="url(#paint1_linear_27_5242)" stroke-width="2"/>
</g>
<path d="M14.8003 13.4999L15.4256 14.2803L14.8003 13.4999ZM19.113 14.4967L18.2267 14.9597C18.4288 15.3465 18.8583 15.5576 19.2879 15.4812C19.7176 15.4049 20.0481 15.0588 20.1046 14.6262L19.113 14.4967ZM21.198 9.84046L20.894 8.88779L21.198 9.84046ZM30.9279 9.84034L30.3305 10.6423L30.9279 9.84034ZM28.148 16.492L27.4565 15.7696C27.1614 16.052 27.0678 16.4855 27.2199 16.8646C27.3721 17.2436 27.7395 17.492 28.148 17.492V16.492ZM31.6229 17.1572L32.5905 16.9045L31.6229 17.1572ZM26.063 21.8134L25.5251 20.9704C25.1917 21.1831 25.015 21.5724 25.0743 21.9634C25.1336 22.3544 25.4177 22.6737 25.7992 22.778L26.063 21.8134ZM29.1002 25.1999L28.2681 24.6452L29.1002 25.1999ZM21.893 27.8V28.8H21.9723L22.0505 28.7875L21.893 27.8ZM14.3711 22.7588C13.8051 21.755 13.5118 20.0417 13.6872 18.2935C13.8639 16.5328 14.484 15.0348 15.4256 14.2803L14.175 12.7196C12.6263 13.9605 11.8975 16.0982 11.6972 18.0938C11.4957 20.1021 11.7973 22.2661 12.6289 23.741L14.3711 22.7588ZM15.4256 14.2803C15.9753 13.8398 16.5388 13.8424 17.0825 14.0587C17.6888 14.2998 18.1207 14.7568 18.2267 14.9597L19.9994 14.0336C19.642 13.3496 18.8097 12.5932 17.8216 12.2003C16.771 11.7824 15.4098 11.7301 14.175 12.7196L15.4256 14.2803ZM20.1046 14.6262C20.2139 13.7892 20.4258 12.8023 20.7333 12.004C20.8873 11.6041 21.0512 11.2891 21.2122 11.0707C21.3788 10.8447 21.4853 10.7985 21.502 10.7931L20.894 8.88779C20.3211 9.07062 19.9011 9.47875 19.6023 9.88393C19.298 10.2967 19.0578 10.7897 18.867 11.2851C18.4847 12.2773 18.2438 13.4303 18.1215 14.3671L20.1046 14.6262ZM21.502 10.7931C22.0513 10.6179 22.725 10.8567 23.2866 11.3943C23.5551 11.6513 23.7197 11.9084 23.7854 12.0759C23.8843 12.3286 23.6855 12.062 23.9816 11.7786L25.3644 13.2235C26.008 12.6075 25.8091 11.7588 25.6475 11.3463C25.4525 10.8487 25.0959 10.3575 24.6694 9.94937C23.8411 9.15656 22.4298 8.39775 20.894 8.88779L21.502 10.7931ZM23.9816 11.7786C23.9672 11.7923 23.9748 11.7841 23.9963 11.7668C24.0039 11.7607 24.0403 11.7313 24.0945 11.6989C24.1199 11.6837 24.1794 11.6494 24.2619 11.6194C24.3085 11.6025 24.545 11.5146 24.8444 11.5899C25.0234 11.635 25.2164 11.7373 25.3679 11.919C25.5125 12.0926 25.5679 12.2769 25.5879 12.4077C25.6228 12.6368 25.5668 12.8135 25.5536 12.8552C25.5175 12.9702 25.468 13.0497 25.4635 13.057C25.4393 13.0975 25.4214 13.1194 25.43 13.1082C25.4552 13.0753 25.5501 12.9633 25.7172 12.7892C26.0416 12.4512 26.5627 11.958 27.1725 11.5049C27.7928 11.0441 28.4451 10.6699 29.0367 10.5054C29.6101 10.3459 30.0152 10.4074 30.3305 10.6423L31.5254 9.03843C30.5558 8.31604 29.4497 8.31461 28.5008 8.57846C27.5701 8.83728 26.689 9.37259 25.9798 9.89945C25.2603 10.434 24.6561 11.0065 24.2743 11.4042C24.0884 11.5979 23.935 11.7712 23.8437 11.8901C23.8232 11.9169 23.7843 11.9684 23.7478 12.0293C23.7373 12.0469 23.6838 12.1343 23.6459 12.2548C23.6319 12.2993 23.5755 12.4782 23.6107 12.7088C23.6307 12.8405 23.6864 13.0254 23.8315 13.1995C23.9833 13.3817 24.1769 13.4843 24.3565 13.5295C24.6574 13.6052 24.8958 13.517 24.9449 13.4992C25.0299 13.4683 25.0925 13.4324 25.1215 13.4151C25.183 13.3783 25.2291 13.3419 25.2487 13.3262C25.2942 13.2896 25.3353 13.2513 25.3644 13.2235L23.9816 11.7786ZM30.3305 10.6423C30.3419 10.6507 30.351 10.6584 30.3627 10.6906C30.3783 10.7335 30.3982 10.8251 30.3886 10.9861C30.3685 11.321 30.2305 11.7989 29.9509 12.3841C29.3968 13.5435 28.4224 14.8452 27.4565 15.7696L28.8394 17.2145C29.9586 16.1434 31.0852 14.649 31.7554 13.2464C32.0879 12.5505 32.3429 11.8058 32.385 11.106C32.4278 10.3926 32.2474 9.57635 31.5254 9.03843L30.3305 10.6423ZM28.148 17.492C28.7622 17.492 29.5098 17.4774 30.1417 17.5452C30.4603 17.5793 30.6751 17.6279 30.7947 17.6752C30.9498 17.7366 30.7316 17.7017 30.6554 17.4099L32.5905 16.9045C32.4189 16.2477 31.8635 15.9472 31.5302 15.8154C31.1612 15.6695 30.7364 15.5974 30.3549 15.5565C29.5866 15.4742 28.6921 15.492 28.148 15.492V17.492ZM30.6554 17.4099C30.753 17.7837 30.6829 18.0198 30.5261 18.2399C30.3321 18.5122 29.9698 18.7983 29.4056 19.1068C28.8484 19.4116 28.2065 19.6808 27.5123 19.9809C26.8482 20.2679 26.1241 20.5882 25.5251 20.9704L26.6009 22.6564C27.0443 22.3735 27.6234 22.1117 28.3058 21.8167C28.9582 21.5348 29.7063 21.222 30.3653 20.8616C31.0173 20.505 31.6975 20.0427 32.1551 19.4004C32.6498 18.7059 32.8403 17.8611 32.5905 16.9045L30.6554 17.4099ZM25.7992 22.778C26.606 22.9986 27.5207 23.3181 28.0714 23.7374C28.3381 23.9404 28.4154 24.0894 28.4341 24.1616C28.4429 24.1954 28.4765 24.3326 28.2681 24.6452L29.9322 25.7546C30.3738 25.0922 30.5555 24.3741 30.37 23.6593C30.1946 22.9831 29.7353 22.4905 29.2829 22.1461C28.3955 21.4704 27.1416 21.0717 26.3268 20.8488L25.7992 22.778ZM28.2681 24.6452C28.1227 24.8633 27.6299 25.2568 26.4642 25.6871C25.3507 26.0981 23.7853 26.4855 21.7355 26.8125L22.0505 28.7875C24.1707 28.4493 25.8758 28.0362 27.1569 27.5633C28.3858 27.1096 29.4115 26.5356 29.9322 25.7546L28.2681 24.6452ZM21.893 26.8C18.7453 26.8 15.5754 24.8949 14.3711 22.7588L12.6289 23.741C14.2196 26.5625 18.0908 28.8 21.893 28.8V26.8Z" fill="#D42515"/>
<path d="M23.2496 18.05C19.9996 20 12.1996 28.06 9.59961 31.7" stroke="#D42515" stroke-width="2"/>
<defs>
<filter id="filter0_b_27_5242" x="-31.6089" y="-31.6089" width="103.218" height="103.218" filterUnits="userSpaceOnUse" color-interpolation-filters="sRGB">
<feFlood flood-opacity="0" result="BackgroundImageFix"/>
<feGaussianBlur in="BackgroundImage" stdDeviation="15.8045"/>
<feComposite in2="SourceAlpha" operator="in" result="effect1_backgroundBlur_27_5242"/>
<feBlend mode="normal" in="SourceGraphic" in2="effect1_backgroundBlur_27_5242" result="shape"/>
</filter>
<radialGradient id="paint0_radial_27_5242" cx="0" cy="0" r="1" gradientUnits="userSpaceOnUse" gradientTransform="translate(38.7718 18.4936) rotate(175.111) scale(54.5563 43.5884)">
<stop stop-color="#D42515"/>
<stop offset="1" stop-color="#FF9F96" stop-opacity="0"/>
</radialGradient>
<linearGradient id="paint1_linear_27_5242" x1="-8.97375" y1="-9.40531" x2="19.742" y2="13.9711" gradientUnits="userSpaceOnUse">
<stop stop-color="#FF3C3C"/>
<stop offset="1" stop-color="#FF3131" stop-opacity="0"/>
</linearGradient>
</defs>
</svg>

<svg width="40" height="40" fill="none" xmlns="http://www.w3.org/2000/svg"><g filter="url(#filter0_b_27_5242)"><rect width="40" height="40" rx="12" fill="url(#paint0_radial_27_5242)" fill-opacity=".3"/><rect x="1" y="1" width="38" height="38" rx="11" stroke="url(#paint1_linear_27_5242)" stroke-width="2"/></g><path d="M14.8 13.5l.626.78-.626-.78zm4.313.997l-.886.463a1 1 0 001.878-.334l-.992-.13zm2.085-4.657l-.304-.952.304.952zm9.73 0l-.598.802.598-.802zm-2.78 6.652l-.692-.722a1 1 0 00.692 1.722v-1zm3.475.665l.967-.253-.967.253zm-5.56 4.656l-.538-.843a1 1 0 00.274 1.808l.264-.965zM29.1 25.2l-.832-.555.832.555zm-7.207 2.6v1h.08l.078-.012-.158-.988zm-7.522-5.041c-.566-1.004-.86-2.717-.684-4.465.177-1.761.797-3.26 1.739-4.014l-1.251-1.56c-1.549 1.24-2.277 3.378-2.478 5.374-.201 2.008.1 4.172.932 5.647l1.742-.982zm1.055-8.479c.55-.44 1.113-.438 1.656-.221.607.24 1.039.698 1.145.9l1.772-.925c-.357-.684-1.19-1.44-2.177-1.834-1.051-.418-2.412-.47-3.647.52l1.25 1.56zm4.679.346c.109-.837.32-1.824.628-2.622.154-.4.318-.715.48-.933.166-.226.272-.272.289-.278l-.608-1.905c-.573.183-.993.59-1.292.996-.304.413-.544.906-.735 1.401-.382.992-.623 2.145-.745 3.082l1.983.26zm1.397-3.833c.55-.175 1.223.064 1.785.601.268.257.433.514.498.682.1.253-.1-.014.197-.297l1.382 1.444c.644-.616.445-1.464.284-1.877-.195-.497-.552-.989-.979-1.397-.828-.792-2.24-1.551-3.775-1.061l.608 1.905zm2.48.986l.014-.012c.008-.006.044-.036.099-.068a.975.975 0 01.167-.08 1 1 0 011.326.788c.035.23-.021.406-.034.448-.037.115-.086.195-.09.202-.025.04-.043.062-.034.051a4.79 4.79 0 01.287-.319c.325-.338.846-.831 1.456-1.284.62-.46 1.272-.835 1.864-1 .573-.16.978-.098 1.294.137l1.194-1.604c-.97-.722-2.075-.723-3.024-.46-.93.26-1.812.795-2.521 1.321a14.114 14.114 0 00-1.706 1.505 6.51 6.51 0 00-.43.486c-.02.027-.06.078-.096.14-.01.017-.064.104-.102.225a1.001 1.001 0 00.71 1.275c.301.075.54-.013.589-.03a1.033 1.033 0 00.304-.174 1.84 1.84 0 00.115-.103l-1.382-1.444zm6.349-1.137c.01.009.02.016.032.049a.765.765 0 01.026.295c-.02.335-.159.813-.438 1.398-.554 1.16-1.529 2.461-2.495 3.386l1.383 1.445c1.12-1.072 2.246-2.566 2.916-3.969.333-.696.588-1.44.63-2.14.043-.713-.138-1.53-.86-2.068l-1.194 1.604zm-2.183 6.85c.614 0 1.362-.015 1.994.053.318.034.533.083.653.13.155.062-.063.027-.14-.265l1.935-.506c-.171-.656-.727-.957-1.06-1.089-.369-.146-.794-.218-1.175-.258-.768-.083-1.663-.065-2.207-.065v2zm2.507-.082c.098.374.028.61-.129.83-.194.272-.556.558-1.12.867-.558.305-1.2.574-1.894.874-.664.287-1.388.607-1.987.99l1.076 1.685c.443-.282 1.022-.544 1.705-.84.652-.281 1.4-.594 2.06-.954.651-.357 1.332-.82 1.79-1.462.494-.694.684-1.539.434-2.495l-1.935.505zM25.8 22.778c.807.22 1.722.54 2.272.96.267.202.344.351.363.424.009.033.043.17-.166.483l1.664 1.11c.442-.663.623-1.38.438-2.096-.175-.676-.635-1.168-1.087-1.513-.888-.676-2.141-1.074-2.956-1.297l-.528 1.929zm2.47 1.867c-.146.218-.64.612-1.805 1.042-1.113.411-2.679.798-4.729 1.125l.316 1.976c2.12-.339 3.825-.752 5.106-1.225 1.229-.453 2.255-1.027 2.775-1.808l-1.664-1.11zM21.892 26.8c-3.148 0-6.318-1.905-7.522-4.041l-1.742.982c1.59 2.822 5.462 5.059 9.264 5.059v-2z" fill="#D42515"/><path d="M23.25 18.05C20 20 12.2 28.06 9.6 31.7" stroke="#D42515" stroke-width="2"/><defs><radialGradient id="paint0_radial_27_5242" cx="0" cy="0" r="1" gradientUnits="userSpaceOnUse" gradientTransform="rotate(175.111 18.991 10.074) scale(54.5563 43.5884)"><stop stop-color="#D42515"/><stop offset="1" stop-color="#FF9F96" stop-opacity="0"/></radialGradient><linearGradient id="paint1_linear_27_5242" x1="-8.974" y1="-9.405" x2="19.742" y2="13.971" gradientUnits="userSpaceOnUse"><stop stop-color="#FF3C3C"/><stop offset="1" stop-color="#FF3131" stop-opacity="0"/></linearGradient><filter id="filter0_b_27_5242" x="-31.609" y="-31.609" width="103.218" height="103.218" filterUnits="userSpaceOnUse" color-interpolation-filters="sRGB"><feFlood flood-opacity="0" result="BackgroundImageFix"/><feGaussianBlur in="BackgroundImage" stdDeviation="15.805"/><feComposite in2="SourceAlpha" operator="in" result="effect1_backgroundBlur_27_5242"/><feBlend in="SourceGraphic" in2="effect1_backgroundBlur_27_5242" result="shape"/></filter></defs></svg>
